images/footer_viber.svg

<svg width="102" height="103" viewBox="0 0 102 103" fill="none" xmlns="http://www.w3.org/2000/svg">
<rect y="0.5" width="102" height="102" rx="50.9999" fill="#746FBB"/>
<g clip-path="url(#clip0_98_44)">
<path d="M57.0865 31.0986H47.4507C38.1229 31.0986 30.5991 38.6665 30.5991 48.06V55.3291C30.5991 61.8902 34.339 67.8537 40.2349 70.6419V78.763C40.2349 79.1724 40.6089 79.5485 41.0819 79.5485C41.2689 79.5485 41.4889 79.4711 41.6428 79.3273L48.6057 72.2794H57.0865C66.4252 72.2794 73.949 64.7115 73.949 55.3181V48.0489C73.949 38.6665 66.4252 31.0986 57.0865 31.0986ZM63.4223 62.8859L61.0134 65.309C58.4174 67.8427 51.7516 64.9328 45.8557 58.9028C39.9599 52.8729 37.342 46.0463 39.8279 43.5126L42.2368 41.0896C43.2048 40.1934 44.7228 40.2376 45.6797 41.167L49.1667 44.8182C50.0576 45.7918 50.0576 47.2412 49.0897 48.2149C48.8257 48.4804 48.5287 48.6242 48.1987 48.7791C46.9777 49.1553 46.3507 50.3392 46.6477 51.5784C47.2417 54.267 50.6076 57.6194 53.1706 58.2833C54.3585 58.582 55.5795 57.9071 55.9865 56.7564C56.3935 55.5615 57.7244 54.8976 58.9894 55.307C59.3634 55.4176 59.6604 55.6832 59.9574 55.9045L63.4443 59.5556C64.3133 60.4297 64.3133 61.9234 63.4223 62.8859ZM54.4245 42.6164C54.1605 42.6164 53.9405 42.6164 53.7205 42.6939C53.3136 42.7713 52.8736 42.4283 52.8296 41.9526C52.7856 41.4768 53.0936 41.1006 53.5336 41.0564C53.8305 40.9789 54.1275 40.9789 54.4245 40.9789C58.8684 40.9789 62.4323 44.6301 62.4983 49.0336C62.4983 49.3324 62.4983 49.6311 62.4213 49.9298C62.3443 50.3392 62.0143 50.7154 61.5304 50.6379C61.0464 50.5605 60.7494 50.2285 60.8264 49.7417C60.8264 49.4762 60.9034 49.2549 60.9034 49.0336C60.8704 45.5263 57.9774 42.6164 54.4245 42.6164ZM59.2424 49.1C59.1654 49.5094 58.8354 49.8856 58.3514 49.8081C57.9774 49.7307 57.6474 49.4319 57.6474 49.1C57.6474 47.3519 56.2065 45.8914 54.4575 45.8914C54.0505 45.9689 53.6105 45.5927 53.5666 45.1501C53.4896 44.7407 53.8635 44.2982 54.2705 44.2539H54.3805C57.1635 44.2539 59.2424 46.4114 59.2424 49.1ZM65.3913 51.6669C65.3143 52.0763 64.9073 52.375 64.5003 52.3418C64.0933 52.3086 63.7963 51.855 63.8293 51.4456C63.8293 51.3682 63.8293 51.3682 63.8293 51.335C64.0163 50.6269 64.0933 49.8856 64.0933 49.1C64.0933 43.7671 59.7594 39.4078 54.4575 39.4078C54.1935 39.4078 53.9735 39.4078 53.7535 39.4078C53.3466 39.4853 52.9066 39.1091 52.9066 38.6665C52.8296 38.2571 53.2036 37.8146 53.6105 37.8146C53.9075 37.8146 54.2045 37.7371 54.4575 37.7371C60.6504 37.7371 65.7212 42.8045 65.7212 49.0668C65.6883 49.9188 65.5783 50.8481 65.3913 51.6669Z" fill="white"/>
</g>
<defs>
<clipPath id="clip0_98_44">
<rect width="43.3499" height="48.4499" fill="white" transform="translate(30.5991 31.0986)"/>
</clipPath>
</defs>
</svg>

<svg width="102" height="103" fill="none" xmlns="http://www.w3.org/2000/svg"><rect y=".5" width="102" height="102" rx="51" fill="#746FBB"/><g clip-path="url(#a)"><path d="M57.087 31.099H47.45c-9.328 0-16.852 7.567-16.852 16.961v7.27c0 6.56 3.74 12.524 9.636 15.312v8.121c0 .41.374.785.847.785a.857.857 0 0 0 .56-.22l6.964-7.049h8.48c9.34 0 16.863-7.567 16.863-16.96v-7.27c0-9.383-7.524-16.95-16.862-16.95Zm6.335 31.787-2.409 2.423c-2.596 2.534-9.261-.376-15.157-6.406-5.896-6.03-8.514-12.857-6.028-15.39l2.409-2.423c.968-.897 2.486-.852 3.443.077l3.487 3.651c.89.974.89 2.423-.077 3.397-.264.265-.561.41-.891.564-1.221.376-1.848 1.56-1.551 2.8.594 2.688 3.96 6.04 6.523 6.704 1.188.299 2.409-.376 2.816-1.527.407-1.194 1.737-1.858 3.002-1.449.374.11.671.376.968.597l3.487 3.652c.87.874.87 2.367-.022 3.33Zm-8.997-20.27c-.264 0-.484 0-.704.078-.407.077-.847-.266-.891-.741-.044-.476.264-.852.704-.897.297-.077.593-.077.89-.077 4.444 0 8.008 3.651 8.074 8.055 0 .298 0 .597-.077.896-.077.41-.407.785-.89.708-.485-.078-.782-.41-.705-.896 0-.266.077-.487.077-.708-.033-3.508-2.926-6.418-6.478-6.418Zm4.817 6.484c-.077.41-.407.786-.89.708-.375-.077-.705-.376-.705-.708 0-1.748-1.44-3.209-3.19-3.209-.407.078-.846-.298-.89-.74-.077-.41.297-.853.703-.897h.11c2.783 0 4.862 2.157 4.862 4.846Zm6.15 2.567a.858.858 0 0 1-.892.675c-.407-.033-.704-.487-.67-.896v-.111c.186-.708.263-1.45.263-2.235 0-5.333-4.334-9.692-9.636-9.692h-.703c-.407.077-.847-.299-.847-.742-.077-.409.297-.851.704-.851.297 0 .594-.078.847-.078 6.192 0 11.263 5.067 11.263 11.33a14.609 14.609 0 0 1-.33 2.6Z" fill="#fff"/></g><defs><clipPath id="a"><path fill="#fff" transform="translate(30.6 31.099)" d="M0 0h43.35v48.45H0z"/></clipPath></defs></svg>
